Origami/16x16/apps/zandronum.svg

<svg width="16" height="16" version="1.1" viewBox="0 0 16 16" xmlns="http://www.w3.org/2000/svg">
 <path d="m1.0020014 4.9546876v3.0453124c0 0.675972-0.0527573 1.8396032 0.3834624 2.38125 0.7255613 1.24052 2.2803804 3.92503 2.8771071 5.153906 0.194747 0.367551 0.626974 0.464844 1.1724074 0.464844h2.5650216 2.5650221c0.545433 0 0.97766-0.09729 1.172407-0.464844 0.596727-1.228876 2.151546-3.913386 2.877107-5.153906 0.43622-0.5416468 0.383463-1.705278 0.383463-2.38125v-3.0453124c0-2.5546876-3.110222-4.9546876-6.9979991-4.9546876-3.8877769 0-6.9979985 2.4-6.9979985 4.9546876z" style="fill:#6e6e6e"/>
 <path d="m1.9798177 7.9784532c-0.4534642 0.0032-0.9070483 0.010138-0.977539 0.021094v0.4c0 0.675972-0.0534071 1.4400564 0.3828125 1.9817028 0.7255614 1.24052 2.2804435 3.92503 2.8771701 5.153906 0.194747 0.367551 0.6273097 0.464844 1.1727431 0.464844h2.5649955 2.5649951c0.545434 0 0.977996-0.09729 1.172744-0.464844 0.596726-1.228876 2.151608-3.913386 2.87717-5.153906 0.436219-0.5416468 0.382812-1.3057312 0.382812-1.9817032v-0.4c-0.08155 4.8e-6 -1.705281 0.00232-1.776584 0.00625-1.06258 0.0585664-1.459391 0.1564372-2.110026 1.1942032-0.610489 1.075714-0.869124 2.817861-1.174111 3.6-0.4292418-1.509535 0.0074443-4.4-1.9370001-4.4s-1.5077584 2.890465-1.9369999 4.4c-0.3049869-0.782139-0.5636221-2.524286-1.1741111-3.6-0.4226328-0.7306464-1.0120231-1.1599312-1.9391275-1.2199844-0.062512-0.004048-0.5154228-0.004772-0.9699437-0.0015624z" style="opacity:.2"/>
 <path d="M 6,16 7.9999999,16 10,16 C 10,16 10.469867,8 7.9999999,8 5.5097038,8 6,16 6,16 Z" style="opacity:.15"/>
 <path d="m3 7v1c2 0 3 5 3 5 0.4292415-1.509535 0.0555555-4 1.9999999-4s1.5707583 2.490465 2.0000001 4c0 0 1-5 3-5v-1h-5.0000001z" style="fill:#7ac4eb"/>
</svg>

<svg xmlns="http://www.w3.org/2000/svg" width="16" height="16" version="1.1" viewBox="0 0 16 16">
 <path style="fill:#6e6e6e" d="m 1.0020014,4.9546876 0,3.0453124 c 0,0.675972 -0.0527573,1.8396032 0.3834624,2.38125 0.7255613,1.24052 2.2803804,3.92503 2.8771071,5.153906 C 4.4573179,15.902707 4.8895449,16 5.4349783,16 l 2.5650216,0 2.5650221,0 c 0.545433,0 0.97766,-0.09729 1.172407,-0.464844 C 12.334156,14.30628 13.888975,11.62177 14.614536,10.38125 15.050756,9.8396032 14.997999,8.675972 14.997999,8 l 0,-3.0453124 C 14.997999,2.4 11.887777,0 7.9999999,0 4.112223,0 1.0020014,2.4 1.0020014,4.9546876 Z"/>
 <path style="opacity:0.2" d="m 1.9798177,7.9784532 c -0.4534642,0.0032 -0.9070483,0.010138 -0.977539,0.021094 l 0,0.4 c 0,0.675972 -0.0534071,1.4400564 0.3828125,1.9817028 0.7255614,1.24052 2.2804435,3.92503 2.8771701,5.153906 C 4.4570083,15.902707 4.889571,16 5.4350044,16 l 2.5649955,0 2.5649951,0 c 0.545434,0 0.977996,-0.09729 1.172744,-0.464844 0.596726,-1.228876 2.151608,-3.913386 2.87717,-5.153906 0.436219,-0.5416468 0.382812,-1.3057312 0.382812,-1.9817032 l 0,-0.4 c -0.08155,4.8e-6 -1.705281,0.00232 -1.776584,0.00625 C 12.158557,8.0643632 11.761746,8.162234 11.111111,9.2 10.500622,10.275714 10.241987,12.017861 9.937,12.8 9.5077582,11.290465 9.9444443,8.4 7.9999999,8.4 6.0555555,8.4 6.4922415,11.290465 6.063,12.8 5.7580131,12.017861 5.4993779,10.275714 4.8888889,9.2 4.4662561,8.4693536 3.8768658,8.0400688 2.9497614,7.9800156 2.8872494,7.9759676 2.4343386,7.9752436 1.9798177,7.9784532 Z"/>
 <path style="opacity:0.15" d="M 6,16 7.9999999,16 10,16 C 10,16 10.469867,8 7.9999999,8 5.5097038,8 6,16 6,16 Z"/>
 <path style="fill:#7ac4eb" d="M 3,7 3,8 C 5,8 6,13 6,13 6.4292415,11.490465 6.0555555,9 7.9999999,9 9.9444443,9 9.5707582,11.490465 10,13 10,13 11,8 13,8 L 13,7 7.9999999,7 Z"/>
</svg>
